icons/tidyparse.svg

<svg xmlns="http://www.w3.org/2000/svg" viewBox="0 0 864 725"><g fill="#e28435" data-iconColor="TidyParse"><path d="m316.5 704 .5 19H209.5l-.5-.5V705h106.5zm289.5 1h105.5l.5.5V724H606.5l-.5-.5zM750.482 9.066c25.018 0 42.528-.386 65 11 25.217 12.776 33.487 44.114 30.5 69.5-1.453 12.348.93 18.941-6 30-5.294 8.448-11.065 16.858-18.5 23.5-6.01 5.369-27.362 14.323-36.311 14.691-35.788 1.474-107.497 15.653-140.189-21.191-27.725-31.246-27.256-94.029 12.5-116.5 17.097-9.663 73.697-11 93-11M70.051 11.189c51.176-1.796 115.216-15.146 148.5 33.5 5.12 7.484 6.269 17.099 8 26 1.018 5.235.623 10.703 0 16-1.569 13.336.824 19.516-6 32-10.594 19.379-28.2 36.968-51.5 39.5-16.569 1.8-33.333 0-50 0-35.104 0-71.161 6.446-96.5-23.5-13.105-15.487-19.758-48.191-14-67 4.606-15.046 8.9-24.62 18.658-36.965 8.854-11.2 36.047-19.297 42.842-19.535M508.5 12c19.107 1.911 37.258 7.595 49.5 24.5 19.792 27.332 20.407 76.593-4.5 101.5-9.209 9.209-28.364 19.19-42 20-53.302 3.166-143.71 19.824-158.5-54.5-2.342-11.769-1.881-24.148 0-36 3.807-23.982 17.688-41.246 39.5-50.5 5.438-2.307 11.2-3.885 17-5 3.29-.633 76.04-2.296 99 0"/><path d="M97.603 186.329c-4.902-2.7 41.445-2.855 42.347-2.031 2.651 2.421-2.695 9.421-2.061 12.955.713 3.971 1.758 6.894 4.611 9.747 9.366 9.366 21.992 8.908 34 10 30.961 2.815 65.608-1.437 97-4 4.371-.357 28.658-1.594 34-1 23.327 2.592 46.426 4.776 69 12 10.443 3.342 20.861 6.825 31 11 6.892 2.838 13.497 6.358 20 10 .441.247 6.364 6.865 9 4 10.377-11.279 9.223-23.048 8.5-37.5-.408-8.163-7.258-24.282-2.966-31.238 2.538-4.113 11.654 6.287 16.466 6.738.704.066 1.363.806 1.5 1.5 6.633 33.622 15.81 64.281 13 98-.289 3.468-4.496 6.858-3 10 2.441 5.125 8.925 7.048 13 11 6.94 6.729 13.669 13.695 20 21 18.401 21.232 19.731 52.211 14 78-1.441 6.483-4.576 12.513-6 19-3.09 14.077-3 15.372-3 24 0 5.333-.313 10.676 0 16 .028.471 1.471.996 1 1-31.585.272-48.727 4.784-80.54 3.936-7.467-.199-30.68 1.574-37.989.334-6.457-1.095 3.93-17.259 6.529-23.27 2.791-6.454 7.718-11.781 11-18 5.457-10.34 13.33-26.75 15-39 1.754-12.86-10.501-43.087-13-47-10.641-16.664-30.326-41.809-48.5-52.5-37.234-21.903-79.893-29.046-122-34-46.926-5.521-91.26-5.681-127.5-40.5-7.701-7.399-7.726-26.497-14.397-30.171M169 159c3.872.389-.331 7.985-2 11.5-4.523 9.523-17.699 14.544-26.5 16.5-7.816 1.737-44.896.969-54-3-3.181-1.387-29.399-23.136-16.787-25.51 12.337-2.322 91.204-.302 99.287.51"/><path d="M416.61 159.018c34.61-1.682 62.433.135 93.89-.018 1.841-.009 1.155 3.78.5 5.5-2.098 5.507-4.333 11.333-8.5 15.5-3.064 3.064-7.908 3.573-12 5-3.092 1.079-8.817-.703-9.5 2.5-5.768 27.065 17.684 51.379 26 73 4.037 10.495 4.168 22.118 7 33 .361 1.387 1.089 3.753 2.5 3.5 6.032-1.083 11.253-4.872 17-7 12.259-4.54 24.312-9.852 37-13 30.674-7.611 114.2-11.05 140.5-50.5 7.872-11.808 14.37-28.171 9.5-41.5-3.475-9.509-20.594-4.175-28.5-10.5-4.167-3.333-9.336-15.463-4-15.5 34.62-.238 66.066-1.023 98.5 0 1.84.058 1.377 3.881.5 5.5-3.636 6.713-7.418 13.886-13.5 18.5-4.22 3.201-13.541-1.421-15.5 3.5-5.949 14.946 1.291 33.194-5 48-10.648 25.06-24.481 50.044-44.5 68.5-15.577 14.361-38.443 17.851-58 26-4.48 1.867-57.185 23.709-61.118 26.552C554.554 380.731 559.953 377.51 535 412.5c-9.201 12.902 6.111 31.288 12 46 5.308 13.26 1.267 14.368-12.435 18.398-19.704 5.795-3.199.795-21.565-8.398-1.738-.87-4.619-1.094-5-3-3.902-19.508 4.788-46.519 5.991-66.377 1.15-18.977 7.541-31.769 1.009-49.623-6.609-18.066-23.049-30.836-35.5-45.5-2.611-3.076-8.095-3.718-9.5-7.5-1.212-3.262 2.711-6.532 3-10 .72-8.637.957-17.386 0-26-1.386-12.475-4.788-24.644-7-37-1.934-10.802-.466-22.685-5.435-32.47-4.121-8.114-22.944-5.929-30.024-9.314-4.866-2.326-10.241-4.508-13.651-8.686-3.132-3.837-5.227-13.772-.28-14.012M470.5 556c3.504.005.281 7.003.5 10.5.126 2.024.935 3.973 1 6 .839 26.021-1.789 51.954-1 78 .323 10.662 0 21.333 0 32 0 5-1.49 7.777-1.607 12.776-.039 1.665 1.546 8.042-.119 8.09-51.054 1.476-100.897-2.256-151.966-1.424-1.184.019-.624 3.026-1.808 3.058-35.139.953-69.287-.732-105.5 0-4.166.084-1.103-8.482 0-12.5 1.303-4.746 8.847-8.438 7-13-4.708-11.631-16.794-18.728-24-29-15.373-21.915-37.709-63.9-39.33-90.062-1.005-16.215 210.32-4.604 316.83-4.438"/><path d="M470.974 555.292c100.673-.068 201.308-9.891 301.026 1.208 11.013 1.226-5.126 21.619-9 32-4.485 12.019-9.982 23.671-16 35-5.338 10.048-11.224 19.86-18 29-7.601 10.253-19.41 17.526-25 29-1.703 3.495 5.866 5.715 7.119 9.395 1.466 4.306 5.429 14.015.881 14.105-34.871.687-70.339-.535-105.5 0-.943.014-1.057-1.974-2-2-44.542-1.241-90.308 2.477-133.918.405-2.684-.128-1.007-3.001-1.589-33.887-.513-27.243.465-37.942.465-44.275 0-36.437-3.994-69.947 1.516-69.951m-204.34-88.611h392.023c51.357 0 92.989 16.342 92.989 36.5s-41.633 36.5-92.989 36.5H266.634c-51.356 0-92.988-16.342-92.988-36.5s41.632-36.5 92.988-36.5"/><path d="M682.5 492c33.505-.057 67.149-2.153 100.512.937 6.679.619 16.825 3.314 17.468 9.991 4.253 44.148-.691 54.021-28.98 54.072-207 .374-414.022 3.013-621 0-31.696-.461-27.13-12.104-27.611-37.732-.145-7.72-1.587-17.353 4.851-21.615 8.343-5.523 20.755-3.599 30.76-3.653 174.665-.946 349.332-1.703 524-2"/></g></svg>

<!--
  - The MIT License (MIT)
  -
  - Copyright (c) 2015-2024 Elior "Mallowigi" Boukhobza
  -
  - Permission is hereby granted, free of charge, to any person obtaining a copy
  - of this software and associated documentation files (the "Software"), to deal
  - in the Software without restriction, including without limitation the rights
  - to use, copy, modify, merge, publish, distribute, sublicense, and/or sell
  - copies of the Software, and to permit persons to whom the Software is
  - furnished to do so, subject to the following conditions:
  -
  - The above copyright notice and this permission notice shall be included in all
  - copies or substantial portions of the Software.
  -
  - THE SOFTWARE IS PROVIDED "AS IS", WITHOUT WARRANTY OF ANY KIND, EXPRESS OR
  - IMPLIED, INCLUDING BUT NOT LIMITED TO THE WARRANTIES OF MERCHANTABILITY,
  - FITNESS FOR A PARTICULAR PURPOSE AND NONINFRINGEMENT. IN NO EVENT SHALL THE
  - AUTHORS OR COPYRIGHT HOLDERS BE LIABLE FOR ANY CLAIM, DAMAGES OR OTHER
  - LIABILITY, WHETHER IN AN ACTION OF CONTRACT, TORT OR OTHERWISE, ARISING FROM,
  - OUT OF OR IN CONNECTION WITH THE SOFTWARE OR THE USE OR OTHER DEALINGS IN THE
  - SOFTWARE.
  -
  -->

<svg  viewBox="0 0 864 725" width="16px" height="16px" version="1.1" xmlns="http://www.w3.org/2000/svg"
>
  <g fill="#e28435" data-iconColor="TidyParse">
    <path id="svg_2" d="m316.5,704l0.5,19l-107.5,0l-0.5,-0.5l0,-17.5l106.5,0l1,-1z"
    />
    <path id="svg_3" d="m606,705l105.5,0l0.5,0.5l0,18.5l-105.5,0l-0.5,-0.5l0,-18.5z"
    />
    <path id="svg_8"
          d="M 750.482 9.066 C 775.5 9.066 793.01 8.68 815.482 20.066 C 840.699 32.842 848.969 64.18 845.982 89.566 C 844.529 101.914 846.912 108.507 839.982 119.566 C 834.688 128.014 828.917 136.424 821.482 143.066 C 815.472 148.435 794.12 157.389 785.171 157.757 C 749.383 159.231 677.674 173.41 644.982 136.566 C 617.257 105.32 617.726 42.537 657.482 20.066 C 674.579 10.403 731.179 9.066 750.482 9.066 Z"
    />
    <path id="svg_9"
          d="M 70.051 11.189 C 121.227 9.393 185.267 -3.957 218.551 44.689 C 223.671 52.173 224.82 61.788 226.551 70.689 C 227.569 75.924 227.174 81.392 226.551 86.689 C 224.982 100.025 227.375 106.205 220.551 118.689 C 209.957 138.068 192.351 155.657 169.051 158.189 C 152.482 159.989 135.718 158.189 119.051 158.189 C 83.947 158.189 47.89 164.635 22.551 134.689 C 9.446 119.202 2.793 86.498 8.551 67.689 C 13.157 52.643 17.451 43.069 27.209 30.724 C 36.063 19.524 63.256 11.427 70.051 11.189 Z"
    />
    <path id="svg_10"
          d="M 508.5 12 C 527.607 13.911 545.758 19.595 558 36.5 C 577.792 63.832 578.407 113.093 553.5 138 C 544.291 147.209 525.136 157.19 511.5 158 C 458.198 161.166 367.79 177.824 353 103.5 C 350.658 91.731 351.119 79.352 353 67.5 C 356.807 43.518 370.688 26.254 392.5 17 C 397.938 14.693 403.7 13.115 409.5 12 C 412.79 11.367 485.54 9.704 508.5 12 Z"
    />
    <path id="svg_11"
          d="M 97.603 186.329 C 92.701 183.629 139.048 183.474 139.95 184.298 C 142.601 186.719 137.255 193.719 137.889 197.253 C 138.602 201.224 139.647 204.147 142.5 207 C 151.866 216.366 164.492 215.908 176.5 217 C 207.461 219.815 242.108 215.563 273.5 213 C 277.871 212.643 302.158 211.406 307.5 212 C 330.827 214.592 353.926 216.776 376.5 224 C 386.943 227.342 397.361 230.825 407.5 235 C 414.392 237.838 420.997 241.358 427.5 245 C 427.941 245.247 433.864 251.865 436.5 249 C 446.877 237.721 445.723 225.952 445 211.5 C 444.592 203.337 437.742 187.218 442.034 180.262 C 444.572 176.149 453.688 186.549 458.5 187 C 459.204 187.066 459.863 187.806 460 188.5 C 466.633 222.122 475.81 252.781 473 286.5 C 472.711 289.968 468.504 293.358 470 296.5 C 472.441 301.625 478.925 303.548 483 307.5 C 489.94 314.229 496.669 321.195 503 328.5 C 521.401 349.732 522.731 380.711 517 406.5 C 515.559 412.983 512.424 419.013 511 425.5 C 507.91 439.577 508 440.872 508 449.5 C 508 454.833 507.687 460.176 508 465.5 C 508.028 465.971 509.471 466.496 509 466.5 C 477.415 466.772 460.273 471.284 428.46 470.436 C 420.993 470.237 397.78 472.01 390.471 470.77 C 384.014 469.675 394.401 453.511 397 447.5 C 399.791 441.046 404.718 435.719 408 429.5 C 413.457 419.16 421.33 402.75 423 390.5 C 424.754 377.64 412.499 347.413 410 343.5 C 399.359 326.836 379.674 301.691 361.5 291 C 324.266 269.097 281.607 261.954 239.5 257 C 192.574 251.479 148.24 251.319 112 216.5 C 104.299 209.101 104.274 190.003 97.603 186.329 Z M 169 159 C 172.872 159.389 168.669 166.985 167 170.5 C 162.477 180.023 149.301 185.044 140.5 187 C 132.684 188.737 95.604 187.969 86.5 184 C 83.319 182.613 57.101 160.864 69.713 158.49 C 82.05 156.168 160.917 158.188 169 159 Z"
    />
    <path id="svg_48"
          d="M 416.61 159.018 C 451.22 157.336 479.043 159.153 510.5 159 C 512.341 158.991 511.655 162.78 511 164.5 C 508.902 170.007 506.667 175.833 502.5 180 C 499.436 183.064 494.592 183.573 490.5 185 C 487.408 186.079 481.683 184.297 481 187.5 C 475.232 214.565 498.684 238.879 507 260.5 C 511.037 270.995 511.168 282.618 514 293.5 C 514.361 294.887 515.089 297.253 516.5 297 C 522.532 295.917 527.753 292.128 533.5 290 C 545.759 285.46 557.812 280.148 570.5 277 C 601.174 269.389 684.7 265.95 711 226.5 C 718.872 214.692 725.37 198.329 720.5 185 C 717.025 175.491 699.906 180.825 692 174.5 C 687.833 171.167 682.664 159.037 688 159 C 722.62 158.762 754.066 157.977 786.5 159 C 788.34 159.058 787.877 162.881 787 164.5 C 783.364 171.213 779.582 178.386 773.5 183 C 769.28 186.201 759.959 181.579 758 186.5 C 752.051 201.446 759.291 219.694 753 234.5 C 742.352 259.56 728.519 284.544 708.5 303 C 692.923 317.361 670.057 320.851 650.5 329 C 646.02 330.867 593.315 352.709 589.382 355.552 C 554.554 380.731 559.953 377.51 535 412.5 C 525.799 425.402 541.111 443.788 547 458.5 C 552.308 471.76 548.267 472.868 534.565 476.898 C 514.861 482.693 531.366 477.693 513 468.5 C 511.262 467.63 508.381 467.406 508 465.5 C 504.098 445.992 512.788 418.981 513.991 399.123 C 515.141 380.146 521.532 367.354 515 349.5 C 508.391 331.434 491.951 318.664 479.5 304 C 476.889 300.924 471.405 300.282 470 296.5 C 468.788 293.238 472.711 289.968 473 286.5 C 473.72 277.863 473.957 269.114 473 260.5 C 471.614 248.025 468.212 235.856 466 223.5 C 464.066 212.698 465.534 200.815 460.565 191.03 C 456.444 182.916 437.621 185.101 430.541 181.716 C 425.675 179.39 420.3 177.208 416.89 173.03 C 413.758 169.193 411.663 159.258 416.61 159.018 Z"
    />
    <path id="svg_107"
          d="M 470.5 556 C 474.004 556.005 470.781 563.003 471 566.5 C 471.126 568.524 471.935 570.473 472 572.5 C 472.839 598.521 470.211 624.454 471 650.5 C 471.323 661.162 471 671.833 471 682.5 C 471 687.5 469.51 690.277 469.393 695.276 C 469.354 696.941 470.939 703.318 469.274 703.366 C 418.22 704.842 368.377 701.11 317.308 701.942 C 316.124 701.961 316.684 704.968 315.5 705 C 280.361 705.953 246.213 704.268 210 705 C 205.834 705.084 208.897 696.518 210 692.5 C 211.303 687.754 218.847 684.062 217 679.5 C 212.292 667.869 200.206 660.772 193 650.5 C 177.627 628.585 155.291 586.6 153.67 560.438 C 152.665 544.223 363.99 555.834 470.5 556 Z"
    />
    <path id="svg_146"
          d="M 470.974 555.292 C 571.647 555.224 672.282 545.401 772 556.5 C 783.013 557.726 766.874 578.119 763 588.5 C 758.515 600.519 753.018 612.171 747 623.5 C 741.662 633.548 735.776 643.36 729 652.5 C 721.399 662.753 709.59 670.026 704 681.5 C 702.297 684.995 709.866 687.215 711.119 690.895 C 712.585 695.201 716.548 704.91 712 705 C 677.129 705.687 641.661 704.465 606.5 705 C 605.557 705.014 605.443 703.026 604.5 703 C 559.958 701.759 514.192 705.477 470.582 703.405 C 467.898 703.277 469.575 700.404 468.993 669.518 C 468.48 642.275 469.458 631.576 469.458 625.243 C 469.458 588.806 465.464 555.296 470.974 555.292 Z"
    />
    <path id="svg_157"
          d="M 266.634 466.681 L 658.657 466.681 C 710.014 466.681 751.646 483.023 751.646 503.181 C 751.646 523.339 710.013 539.681 658.657 539.681 L 266.634 539.681 C 215.278 539.681 173.646 523.339 173.646 503.181 C 173.646 483.023 215.278 466.681 266.634 466.681 L 266.634 466.681 Z"
    />
    <path id="svg_1"
          d="M 682.5 492 C 716.005 491.943 749.649 489.847 783.012 492.937 C 789.691 493.556 799.837 496.251 800.48 502.928 C 804.733 547.076 799.789 556.949 771.5 557 C 564.5 557.374 357.478 560.013 150.5 557 C 118.804 556.539 123.37 544.896 122.889 519.268 C 122.744 511.548 121.302 501.915 127.74 497.653 C 136.083 492.13 148.495 494.054 158.5 494 C 333.165 493.054 507.832 492.297 682.5 492 Z"
    />
  </g>
</svg>
